X: 45
M: C|
L: 1/8
K: E
ga |\
bgaf egfe | defd BcBA | GBeB cAfe |
defd B2ga | bgaf egfe | defd BcBA | GBdB cafd | e2e2 e2 :|
|: de |\
fBTB2 fBaf | gBTB2 gBbg | fagf edc^B | [c2^E2][c2E2] [c2E2]=BA |

